X: 32133
T: Peter Kiefer's
R: waltz
M: 3/4
K: Dmajor
|:A/B/A/F/|D2F2A2|d4 cd|(3ded cd dc|B3 BcB|
A2c2e2|a4 ^ga|(3aba ^ga a^g|f4 AF|
D2F2A2|d4 cd|(3ded cd dc|B3 BcB|
ABc def|(3gfe e2 c2|d3 d d2|d4:|
|:f^g|(3aba a2ba|f2f2e2|(3ded cd dc|B3 BcB|
A2c2e2|a4 ^ga|(3aba ^ga a^g|f4 f^g|
(3aba a2ba|f2f2e2|(3ded cd dc|B3 BcB|
ABc def|(3gfe e2 c2|d3 d d2|d4:|

